src/images/pencil-icon.svg

<svg width="15" height="15" viewBox="0 0 15 15" fill="none" xmlns="http://www.w3.org/2000/svg">
<g clip-path="url(#clip0_20_740)">
<path d="M14.587 4.16318L13.2365 5.51376C13.0988 5.65146 12.8761 5.65146 12.7384 5.51376L9.48646 2.26181C9.34876 2.12412 9.34876 1.90146 9.48646 1.76376L10.837 0.413178C11.3849 -0.134674 12.2755 -0.134674 12.8263 0.413178L14.587 2.17392C15.1378 2.72177 15.1378 3.6124 14.587 4.16318ZM8.3263 2.92392L0.632942 10.6173L0.0118485 14.1768C-0.0731124 14.6573 0.345833 15.0733 0.826302 14.9913L4.38587 14.3673L12.0792 6.67392C12.2169 6.53622 12.2169 6.31357 12.0792 6.17587L8.82728 2.92392C8.68665 2.78622 8.464 2.78622 8.3263 2.92392ZM3.63587 9.9581C3.47474 9.79697 3.47474 9.53915 3.63587 9.37802L8.14759 4.8663C8.30872 4.70517 8.56654 4.70517 8.72767 4.8663C8.8888 5.02744 8.8888 5.28525 8.72767 5.44638L4.21595 9.9581C4.05482 10.1192 3.797 10.1192 3.63587 9.9581ZM2.57825 12.422H3.9845V13.4854L2.09486 13.8165L1.18372 12.9054L1.51478 11.0157H2.57825V12.422Z" fill="white"/>
</g>
<defs>
<clipPath id="clip0_20_740">
<rect width="15" height="15" fill="white"/>
</clipPath>
</defs>
</svg>

<svg xmlns="http://www.w3.org/2000/svg" width="15" height="15" fill="none"><g clip-path="url(#a)"><path fill="#fff" d="m14.587 4.163-1.35 1.35a.352.352 0 0 1-.499 0L9.486 2.263a.352.352 0 0 1 0-.498l1.351-1.35a1.41 1.41 0 0 1 1.99 0l1.76 1.76c.55.548.55 1.438 0 1.99Zm-6.26-1.24L.632 10.618l-.621 3.56a.704.704 0 0 0 .814.814l3.56-.624 7.693-7.693a.352.352 0 0 0 0-.498L8.827 2.924a.355.355 0 0 0-.5 0ZM3.635 9.959a.408.408 0 0 1 0-.58l4.512-4.512a.408.408 0 0 1 .58 0 .408.408 0 0 1 0 .58L4.216 9.958a.409.409 0 0 1-.58 0Zm-1.058 2.464h1.407v1.063l-1.89.332-.911-.912.33-1.89h1.064v1.407Z"/></g><defs><clipPath id="a"><path fill="#fff" d="M0 0h15v15H0z"/></clipPath></defs></svg>
